build/img/reasons-item/icon-house.svg

<svg viewBox="0 0 39 37" fill="none" xmlns="http://www.w3.org/2000/svg">
<path d="M15.4015 33.2194H23.7549V21.0613H15.4015V33.2194ZM22.2408 31.7441H16.9155V22.5365H22.1886V31.7441H22.2408Z" fill="#81B3D2"/>
<path d="M37.9036 20.0431L39 18.9748L33.8313 13.9386V0.203483H26.6265V6.91843L19.4739 0L0 19.0257L1.09639 20.094L5.16867 16.126V35.3552H3.13253V36.8305H36.494V35.3552H33.8313V16.0752L37.9036 20.0431ZM28.1406 1.72961H32.2651V12.4633L28.1406 8.44455V1.72961ZM32.3173 35.3043H6.73494V14.5999L19.4739 2.13657L32.2651 14.5999V35.3043H32.3173Z" fill="#81B3D2"/>
<path d="M15.5582 13.8369C15.5582 16.0243 17.3855 17.8048 19.5783 17.8048C21.8233 17.8048 23.6506 16.0243 23.6506 13.8369C23.6506 11.6494 21.8233 9.9198 19.5783 9.9198C17.3333 9.9198 15.5582 11.6494 15.5582 13.8369ZM19.5783 11.2933C20.9879 11.2933 22.1888 12.4125 22.1888 13.8369C22.1888 15.2104 21.0402 16.3804 19.5783 16.3804C18.1687 16.3804 16.9679 15.2612 16.9679 13.8369C16.9679 12.4633 18.1687 11.2933 19.5783 11.2933Z" fill="#81B3D2"/>
<path d="M10.3895 21.0613H8.82324V23.0452H10.3895V21.0613Z" fill="#81B3D2"/>
<path d="M13.4698 21.0613H11.9036V23.0452H13.4698V21.0613Z" fill="#81B3D2"/>
<path d="M10.3895 24.1128H8.82324V26.0968H10.3895V24.1128Z" fill="#81B3D2"/>
<path d="M13.4698 24.1128H11.9036V26.0968H13.4698V24.1128Z" fill="#81B3D2"/>
<path d="M27.0443 21.0613H25.478V23.0452H27.0443V21.0613Z" fill="#81B3D2"/>
<path d="M30.1769 21.0613H28.6106V23.0452H30.1769V21.0613Z" fill="#81B3D2"/>
<path d="M27.0443 24.1128H25.478V26.0968H27.0443V24.1128Z" fill="#81B3D2"/>
<path d="M30.1769 24.1128H28.6106V26.0968H30.1769V24.1128Z" fill="#81B3D2"/>
</svg>

<svg viewBox="0 0 39 37" fill="none" xmlns="http://www.w3.org/2000/svg"><path d="M15.402 33.22h8.353V21.06h-8.353v12.16zm6.839-1.476h-5.325v-9.207h5.273v9.207h.052z" fill="#81B3D2"/><path d="M37.904 20.043L39 18.975l-5.169-5.036V.203h-7.205v6.715L19.474 0 0 19.026l1.096 1.068 4.073-3.968v19.23H3.133v1.474h33.361v-1.475h-2.663v-19.28l4.073 3.968zM28.14 1.73h4.124v10.733L28.14 8.445V1.73zm4.176 33.574H6.735V14.6L19.474 2.137 32.265 14.6v20.704h.052z" fill="#81B3D2"/><path d="M15.558 13.837c0 2.187 1.828 3.968 4.02 3.968 2.245 0 4.073-1.78 4.073-3.968 0-2.188-1.828-3.917-4.073-3.917s-4.02 1.73-4.02 3.917zm4.02-2.544c1.41 0 2.61 1.12 2.61 2.544 0 1.373-1.148 2.543-2.61 2.543-1.41 0-2.61-1.119-2.61-2.543 0-1.374 1.2-2.544 2.61-2.544zm-9.188 9.768H8.822v1.984h1.566v-1.984zm3.08 0h-1.566v1.984h1.566v-1.984zm-3.08 3.052H8.822v1.984h1.566v-1.984zm3.08 0h-1.566v1.984h1.566v-1.984zm13.574-3.052h-1.566v1.984h1.566v-1.984zm3.133 0H28.61v1.984h1.566v-1.984zm-3.133 3.052h-1.566v1.984h1.566v-1.984zm3.133 0H28.61v1.984h1.566v-1.984z" fill="#81B3D2"/></svg>
